icons/bhi_slideout.svg

<svg xmlns="http://www.w3.org/2000/svg" viewBox="0 0 512 512" enable-background="new 0 0 512 512"><path d="M0 32c0-16.4 12-32 32-32h451c19 0 29 18.6 29 32v448c0 17.1-8.5 32-29 32h-451c-18.5 0-32-11.9-32-32v-448zm32 448h451v-320h-195v-128h-256v448zM288 160h32v320h-32z"/><path fill="#010101" d="M215.6 340.6l-74.4-74.3 74.4-74.3-22.7-22.7-96.9 97 96.9 96.9z"/></svg>

<?xml version="1.0" encoding="utf-8"?>
<!-- Generator: Adobe Illustrator 19.2.0, SVG Export Plug-In . SVG Version: 6.00 Build 0)  -->
<svg version="1.1" id="Layer_1" xmlns="http://www.w3.org/2000/svg" xmlns:xlink="http://www.w3.org/1999/xlink" x="0px" y="0px"
	 viewBox="0 0 512 512" enable-background="new 0 0 512 512" xml:space="preserve">
<g>
	<path d="M0,32C0,15.6,12,0,32,0l451,0c19,0,29,18.6,29,32v448c0,17.1-8.5,32-29,32H32c-18.5,0-32-11.9-32-32L0,32z M32,480h451V160
		H288V32H32V480z"/>
</g>
<rect x="288" y="160" width="32" height="320"/>
<g id="expand-more_13_">
	<polygon fill="#010101" points="215.6,340.6 141.2,266.3 215.6,192 192.9,169.3 96,266.3 192.9,363.2 	"/>
</g>
</svg>
